fs/alert_on_24_filled.svg

<svg viewBox="0 0 24 24" fill="none" xmlns="http://www.w3.org/2000/svg" height="1em" width="1em">
  <path d="M9.04173 19.003H14.9583C14.7196 20.4211 13.486 21.5015 12 21.5015C10.514 21.5015 9.28037 20.4211 9.04173 19.003ZM12 2.00391C16.1421 2.00391 19.5 5.36177 19.5 9.50391V13.5024L20.9183 16.6625C20.9732 16.7848 21.0016 16.9174 21.0016 17.0515C21.0016 17.5762 20.5763 18.0015 20.0516 18.0015H3.95219C3.8184 18.0015 3.68612 17.9733 3.56402 17.9186C3.08514 17.7042 2.87073 17.1422 3.08511 16.6633L4.5 13.5028L4.50011 9.49099L4.50453 9.24107C4.6436 5.21035 7.95587 2.00391 12 2.00391ZM23 8.25001C23.4142 8.25001 23.75 8.5858 23.75 9.00001C23.75 9.37971 23.4678 9.6935 23.1018 9.74317L23 9.75001H21C20.5858 9.75001 20.25 9.41423 20.25 9.00001C20.25 8.62032 20.5322 8.30652 20.8982 8.25686L21 8.25001H23ZM3 8.25001C3.41421 8.25001 3.75 8.5858 3.75 9.00001C3.75 9.37971 3.46785 9.6935 3.10177 9.74317L3 9.75001H1C0.585786 9.75001 0.25 9.41423 0.25 9.00001C0.25 8.62032 0.532154 8.30652 0.898229 8.25686L1 8.25001H3ZM22.6 2.55001C22.8259 2.85126 22.791 3.26716 22.5338 3.52701L22.45 3.60001L20.45 5.10001C20.1186 5.34854 19.6485 5.28138 19.4 4.95001C19.1741 4.64877 19.209 4.23287 19.4662 3.97302L19.55 3.90001L21.55 2.40001C21.8814 2.15148 22.3515 2.21864 22.6 2.55001ZM2.45 2.40001L4.45 3.90001C4.78137 4.14854 4.84853 4.61864 4.6 4.95001C4.35147 5.28138 3.88137 5.34854 3.55 5.10001L1.55 3.60001C1.21863 3.35148 1.15147 2.88138 1.4 2.55001C1.64853 2.21864 2.11863 2.15148 2.45 2.40001Z" fill="#212121"/>
</svg>

<svg viewBox="0 0 24 24" fill="none" xmlns="http://www.w3.org/2000/svg" height="1em" width="1em">
  <path d="M9.042 19.003h5.916a3 3 0 0 1-5.916 0Zm2.958-17a7.5 7.5 0 0 1 7.5 7.5v4l1.418 3.16A.95.95 0 0 1 20.052 18h-16.1a.95.95 0 0 1-.867-1.338l1.415-3.16V9.49l.005-.25A7.5 7.5 0 0 1 12 2.004ZM23 8.25a.75.75 0 0 1 .102 1.493L23 9.75h-2a.75.75 0 0 1-.102-1.493L21 8.25h2Zm-20 0a.75.75 0 0 1 .102 1.493L3 9.75H1a.75.75 0 0 1-.102-1.493L1 8.25h2Zm19.6-5.7a.75.75 0 0 1-.066.977l-.084.073-2 1.5a.75.75 0 0 1-.984-1.127l.084-.073 2-1.5a.75.75 0 0 1 1.05.15ZM2.45 2.4l2 1.5a.75.75 0 1 1-.9 1.2l-2-1.5a.75.75 0 1 1 .9-1.2Z" fill="#212121"/>
</svg>
